src/assets/svg/benefit-img4.svg

<svg width="48" height="37" viewBox="0 0 48 37" fill="none" xmlns="http://www.w3.org/2000/svg">
<path d="M39.2153 16.6776C40.4541 16.3518 41.5473 15.5621 42.2859 14.4595C43.0245 13.3568 43.3567 12.0185 43.2189 10.7003C43.0812 9.38209 42.4833 8.17649 41.5393 7.3138C40.5954 6.45118 39.3717 5.99198 38.1022 6.02403M8.95857 16.6776C7.71972 16.3518 6.62651 15.5621 5.88794 14.4595C5.14931 13.3568 4.81714 12.0185 4.95491 10.7003C5.09263 9.38209 5.69057 8.17649 6.63452 7.3138C7.5784 6.45118 8.80211 5.99198 10.0717 6.02403M40.7027 23.4907L40.9695 23.4156C43.4947 22.7053 46 24.603 46 27.2263C46 31.5988 42.4554 35.1434 38.0829 35.1434H38M7.29732 23.4907L7.03051 23.4156C4.50526 22.7053 2 24.603 2 27.2263C2 31.5988 5.54463 35.1434 9.91714 35.1434H10" stroke="#00C700" stroke-width="2.5" stroke-linecap="round"/>
<path d="M24.0004 16.8571C28.2609 16.8571 31.7147 13.5313 31.7147 9.42857C31.7147 5.32588 28.2609 2 24.0004 2C19.7399 2 16.2861 5.32588 16.2861 9.42857C16.2861 13.5313 19.7399 16.8571 24.0004 16.8571Z" stroke="#00C700" stroke-width="2.5"/>
<path d="M11.7144 25.9641C11.7144 22.6201 15.0041 20.2688 18.168 21.3514L19.9645 21.9662C22.5804 22.8613 25.4197 22.8613 28.0357 21.9662L29.8322 21.3514C32.996 20.2688 36.2858 22.6201 36.2858 25.9641C36.2858 31.349 31.9204 35.7145 26.5354 35.7145H21.4648C16.0798 35.7145 11.7144 31.349 11.7144 25.9641Z" stroke="#00C700" stroke-width="2.5"/>
</svg>

<svg xmlns="http://www.w3.org/2000/svg" width="48" height="37" fill="none"><path stroke="#00C700" stroke-linecap="round" stroke-width="2.5" d="M39.215 16.678c1.24-.326 2.332-1.116 3.07-2.219a5.7 5.7 0 0 0 .934-3.759c-.138-1.318-.736-2.524-1.68-3.386a4.9 4.9 0 0 0-3.437-1.29M8.96 16.678c-1.24-.326-2.332-1.116-3.071-2.219a5.7 5.7 0 0 1-.933-3.759c.138-1.318.736-2.524 1.68-3.386a4.9 4.9 0 0 1 3.437-1.29m30.63 17.467.267-.075c2.526-.71 5.031 1.187 5.031 3.81a7.917 7.917 0 0 1-7.917 7.917H38M7.297 23.491l-.266-.075C4.505 22.706 2 24.603 2 27.226a7.917 7.917 0 0 0 7.917 7.917H10"/><path stroke="#00C700" stroke-width="2.5" d="M24 16.857c4.26 0 7.715-3.326 7.715-7.428S28.26 2 24 2s-7.714 3.326-7.714 7.429S19.74 16.857 24 16.857Zm-12.286 9.107c0-3.344 3.29-5.695 6.454-4.613l1.797.615c2.615.895 5.455.895 8.07 0l1.797-.615c3.164-1.082 6.454 1.27 6.454 4.613 0 5.385-4.366 9.75-9.75 9.75h-5.071a9.75 9.75 0 0 1-9.75-9.75Z"/></svg>
